storage/app/icons/phosphoricons/duotone/export-duotone.svg

<svg xmlns="http://www.w3.org/2000/svg" fill="currentColor" viewBox="0 0 256 256"><path d="M208 104v112H48V104Z" opacity=".2"/><path d="M216 112v96a16 16 0 0 1-16 16H56a16 16 0 0 1-16-16v-96a16 16 0 0 1 16-16h24a8 8 0 0 1 0 16H56v96h144v-96h-24a8 8 0 0 1 0-16h24a16 16 0 0 1 16 16M93.66 69.66 120 43.31V136a8 8 0 0 0 16 0V43.31l26.34 26.35a8 8 0 0 0 11.32-11.32l-40-40a8 8 0 0 0-11.32 0l-40 40a8 8 0 0 0 11.32 11.32"/></svg>

<svg xmlns="http://www.w3.org/2000/svg" viewBox="0 0 256 256" fill="currentColor"><path d="M208,104V216H48V104Z" opacity="0.2"/><path d="M216,112v96a16,16,0,0,1-16,16H56a16,16,0,0,1-16-16V112A16,16,0,0,1,56,96H80a8,8,0,0,1,0,16H56v96H200V112H176a8,8,0,0,1,0-16h24A16,16,0,0,1,216,112ZM93.66,69.66,120,43.31V136a8,8,0,0,0,16,0V43.31l26.34,26.35a8,8,0,0,0,11.32-11.32l-40-40a8,8,0,0,0-11.32,0l-40,40A8,8,0,0,0,93.66,69.66Z"/></svg>
